X:543
%%etbk:tnset id:278,pos:1,rep:3x,ant:
%%etbk:pldat 2015-02-22T13:28,2015-01-14T16:38,2015-01-13T16:36,2015-01-10T14:48,2015-01-07T15:21,2015-01-05T18:14,2014-10-16T18:49,2014-10-14T18:11,2014-10-12T13:47,2014-09-18T18:24,2014-08-14T18:43,2014-08-13T19:01,2014-08-12T18:39,2014-08-11T18:53,2014-08-10T13:35,2014-08-06T19:08,2014-08-05T18:58,2014-08-04T18:23,2014-08-03T15:48,2014-08-02T14:55,2014-07-22T18:48,2014-07-16T18:11,2014-07-04T11:21,2014-06-20T15:43,2014-06-19T18:37,2014-06-17T18:26,2014-06-09T14:29,2014-05-28T10:13,2014-04-24T18:41,2014-04-24T18:38,2014-04-22T19:08,2014-04-09T15:44,2014-04-06T11:29,2014-04-02T16:30,2014-03-05T19:03,2014-03-04T19:03,2014-03-02T15:39,2014-03-01T15:09,2014-01-30T18:37,2014-01-28T17:11,2014-01-27T18:51,2014-01-18T16:19,2014-01-12T14:38,2014-01-02T10:35,2013-12-28T14:12,2013-12-26T14:12,2013-12-15T15:49,2013-12-10T18:44
T:Reel de la fesse crampee
M:C
R: reel
C: Outside Track
P: 8 Bars Guit Intro - ABABDAD(1x)                % play the parts in this order
%%score (M1) (M2) (M3)
V:M1  clef=treble  name="Whistle"   snm="Whistle"
V:M2  clef=treble  name="Fiddle"    snm="Fiddle" 
V:M3  clef=treble  name="Box"    snm="Box" 
K:Fmaj
%            End of header, start of tune body:
P:A 
% 1 
[V:M1] |:F2CD FGAc | fcAc BAGA | F2CD FGAc | fagf ecBG |
[V:M2] |:      z8      |  z8 |  z8 | z8 |
[V:M3] |:      f8      |  -f8 | a8  | -a8 |
% 5
[V:M1] F2CD FGAc | fcAc BAGA | FEFA BABc | c2fe dBGE :|
[V:M2]       z8      |  z8 |  z8 | z8 :|
[V:M3]       c'8      |  -c'8 | f8  | -g8 :|
P:B 
% 9 
[V:M1] |:  A2dA dAec  |  AFAc d2dc           |  A2dA dAed-  |  dcde f2fe    |
[V:M2] |: D2AD FDGE | DA,DE (3FED GE | D2AD FDGF- | FEFA cAGE |
[V:M3] |:      d8           |  -d3 c2c2c            | B8                  | -B3 c2c2e |
% 13 
[V:M1]  A2dA dAec  |  AFAc d2dc           |  f2af gfga  |  f2af cAGE :|
[V:M2] D2AD FDGE | DA,DE (3FED GE | Adfd edef | dAfd cAGE :|
[V:M3]       d8           |  -d3 c2c2c            | A3 B4 G-  | -G3 c-c4 :|
P:D 
% 17 
[V:M1] |:    z4z3 f- | f2ef cfcB    | A8                | z8    |
[V:M2] |:      F8      |  z8             |  z4 z  cfg  |  a2gf ecBG   |
[V:M3] |:      f8      |  z8             |   z8              |  z8  |
% 21 
[V:M1]         z8       |1 z8    | z8   | z8    :|
[V:M2]       {AB}c8  |1  z8             |  z4z3 E-|  E F EF GFEF  :|
[V:M3]       z4z3 !5!f-  |1  f !4!e {f}e!3!d d!2!c!1!A!2!G  |   {A}!2!G!1!F- F6    |  z8 :|
% 25 
[V:M1]         z8       |2 z8    | z8   | z8    ||
[V:M2]       {AB}c8  |2  z8             |  z8 | z8  ||
[V:M3]       z4z3 !5!f-  |2  f !4!e {f}e!3!d d!2!cce  |  !5!fe ed fe ed    |  !5!f !4!e{f}e dd !2!c!1!A!2!G ||


